dist/svg/inbox.svg

<!-- Generated by Trend Micro Style Portal -->
<svg version="1.1" xmlns="http://www.w3.org/2000/svg" width="16" height="16" viewBox="0 0 16 16">
  <title>inbox</title>
  <path fill="rgb(34,34,34)" d="M14 3h-12l-2 3v6c0 0.6 0.4 1 1 1h14c0.6 0 1-0.4 1-1v-6l-2-3zM11 6c0 1.7-1.3 3-3 3s-3-1.3-3-3h-3.3l1.3-2h10l1.3 2h-3.3z"></path>
</svg>

<svg width="16" height="16" viewBox="0 0 16 16" fill="rgb(34, 34, 34)" xmlns="http://www.w3.org/2000/svg"><title>inbox</title><path d="M14 3H2L0 6V12C0 12.6 0.4 13 1 13H15C15.6 13 16 12.6 16 12V6L14 3ZM11 6C11 7.7 9.7 9 8 9C6.3 9 5 7.7 5 6H1.7L3 4H13L14.3 6H11Z" fill="rgb(34, 34, 34)" fill-opacity="1.00"/></svg>
